X: 35254
T: Rose Amang The Heather, The
R: strathspey
M: 4/4
K: Dmajor
|:d>e|f>gf>e d>ed>B|A>FA>d c<e e2|
f>gf>e d>ed>c|1 c>de>a f<d:|2 c>de>a f<d d2||
A2 (3FED F<AA>d|B>AB>d c<e e2|
A2 (3FED F<AA>d|c>de>a f<d d2:|
f2 (3agf e2 (3gfe|d2 (3fed c2 (3edc|
B2 (3dcB A>df>a|1 g>fe>d c<a a2:|2 g>fe>a f<d||

